X:1
T:Mrunel
Z:Upptecknad av Bla Bartk 1910
O:Bihor, Rumnien
B:Sex rumnska danser, nr 6
M:4/4
L:1/16
K:Am
e^fg2 f2e2 efge a4|e^fg2 f2e2 d2c2 c4:|G2c2 G2c2 G2c2 c=BAB|G2[Ae]2 A2[Ae]2 A2[Ae]2 [Ae]4|
ABc2 c2c2 c2c2 c=BAB|G2c2 c2cd e2c2 c4|G2c2 G2c2 G2c2 c=BAB|G2[Ae]2 A2[Ae]2 A2[Ae]2 [Ae]4|]
